packages/components/src/components/icon/common/ic-whats-app.svg

<svg width="16" height="16" viewBox="0 0 16 16" fill="none" xmlns="http://www.w3.org/2000/svg">
<path fill-rule="evenodd" clip-rule="evenodd" d="M13.6668 2.33699C12.1623 0.832459 10.1652 0.00381862 8.03437 0C3.64296 0 0.0725532 3.57423 0.0687346 7.96182C0.0687346 9.36707 0.435321 10.7341 1.13031 11.9446L0 16L4.22339 14.9652C5.38807 15.599 6.69785 15.9351 8.03055 15.9351H8.03437C12.422 15.9351 15.9962 12.3609 16 7.96945C16 5.84248 15.1714 3.84153 13.6668 2.33699ZM8.03437 14.5909C6.84296 14.5909 5.67828 14.2702 4.66253 13.6668L4.42196 13.5217L1.91694 14.1785L2.5852 11.7346L2.42864 11.4826C1.7642 10.4286 1.41671 9.2105 1.41671 7.96182C1.41671 4.31122 4.38759 1.34415 8.03819 1.34415C9.8062 1.34415 11.4673 2.03532 12.7198 3.28401C13.9685 4.53652 14.6558 6.19761 14.6558 7.96563C14.652 11.62 11.6811 14.5909 8.03437 14.5909ZM11.6659 9.63055C11.4673 9.53126 10.4897 9.05012 10.3064 8.98138C10.1231 8.91647 9.9895 8.8821 9.85967 9.08067C9.72602 9.27924 9.34415 9.72983 9.2296 9.85967C9.11504 9.99332 8.99666 10.0086 8.79809 9.90931C8.59952 9.81003 7.958 9.6 7.19809 8.92029C6.60621 8.39332 6.20907 7.74034 6.09069 7.54177C5.97613 7.3432 6.07924 7.23628 6.17852 7.13699C6.26635 7.04916 6.37709 6.90406 6.47637 6.7895C6.57566 6.67494 6.61002 6.59093 6.67494 6.45728C6.73986 6.32363 6.70931 6.20907 6.65966 6.10979C6.61002 6.0105 6.21289 5.02912 6.04487 4.63198C5.88449 4.24248 5.72029 4.29594 5.59809 4.29212C5.48353 4.28449 5.34988 4.28449 5.21623 4.28449C5.08258 4.28449 4.86874 4.33413 4.68544 4.5327C4.50215 4.73127 3.99045 5.21241 3.99045 6.1938C3.99045 7.17518 4.70453 8.11838 4.80382 8.25203C4.9031 8.38568 6.20525 10.3943 8.20239 11.2573C8.6759 11.4635 9.0463 11.5857 9.33652 11.6773C9.81384 11.8301 10.2453 11.8072 10.589 11.7575C10.9709 11.7002 11.7652 11.2764 11.9332 10.8105C12.0974 10.3446 12.0974 9.94749 12.0477 9.86349C11.9981 9.77948 11.8644 9.72983 11.6659 9.63055Z" fill="#333333"/>
</svg>

<svg width="16" height="16" xmlns="http://www.w3.org/2000/svg"><path fill="var(--fill-color1)" clip-rule="evenodd" d="M13.667 2.337A7.927 7.927 0 0 0 8.034 0C3.643 0 .073 3.574.07 7.962c0 1.405.366 2.772 1.061 3.983L0 16l4.223-1.035a7.97 7.97 0 0 0 3.808.97h.003c4.388 0 7.962-3.574 7.966-7.966a7.914 7.914 0 0 0-2.333-5.632ZM8.034 14.591a6.602 6.602 0 0 1-3.371-.924l-.241-.145-2.505.656.668-2.443-.156-.252a6.59 6.59 0 0 1-1.012-3.521c0-3.65 2.97-6.618 6.621-6.618a6.59 6.59 0 0 1 4.682 1.94 6.586 6.586 0 0 1 1.936 4.682c-.004 3.654-2.975 6.625-6.622 6.625Zm3.632-4.96c-.199-.1-1.176-.58-1.36-.65-.183-.065-.316-.099-.446.1-.134.198-.516.649-.63.779-.115.133-.233.149-.432.05-.198-.1-.84-.31-1.6-.99-.592-.527-.989-1.18-1.107-1.378-.115-.199-.012-.306.088-.405.087-.088.198-.233.297-.347.1-.115.134-.2.199-.333s.034-.248-.015-.347c-.05-.1-.447-1.08-.615-1.478-.16-.39-.325-.336-.447-.34-.114-.008-.248-.008-.382-.008a.732.732 0 0 0-.53.249c-.184.198-.696.68-.696 1.66 0 .982.715 1.925.814 2.059.1.134 1.401 2.142 3.398 3.005.474.207.844.329 1.135.42.477.153.908.13 1.252.08.382-.057 1.176-.48 1.344-.947.164-.465.164-.863.115-.947-.05-.084-.184-.133-.382-.232Z"/></svg>
